svg/flask.svg

<svg xmlns="http://www.w3.org/2000/svg" viewBox="0 0 48 55" enable-background="new 0 0 48 55"><style type="text/css">.st0{fill:#343434;}</style><title>flask</title><desc>Created with Sketch.</desc><path class="st0" d="M47 52l-13-25c-.6-1.2-1.2-1.9-2-3v-16c1.1 0 2-.9 2-2v-4c0-1.1-.9-2-2-2h-16c-1.1 0-2 .9-2 2v4c0 1.1.9 2 2 2v16c-.8 1.1-1.4 1.8-2 3l-13 25c-.5 1.8.3 3 2 3h42c1.7 0 2.5-1.2 2-3zm-30-49h14v2h-14v-2zm-11 48l11-23c.5-.3 2-2 2-2v-18h10v18s1.5 1.7 2 2l11 23h-36zM20 30l-9 18h26l-9-18z"/></svg>

<?xml version="1.0" encoding="utf-8"?>
<!-- Generator: Adobe Illustrator 21.0.0, SVG Export Plug-In . SVG Version: 6.00 Build 0)  -->
<svg version="1.1" id="Layer_1" xmlns="http://www.w3.org/2000/svg" xmlns:xlink="http://www.w3.org/1999/xlink" x="0px" y="0px"
	 viewBox="0 0 48 55" style="enable-background:new 0 0 48 55;" xml:space="preserve">
<style type="text/css">
	.st0{fill:#343434;}
</style>
<title>flask</title>
<desc>Created with Sketch.</desc>
<g>
	<path class="st0" d="M47,52L34,27c-0.6-1.2-1.2-1.9-2-3V8h0c1.1,0,2-0.9,2-2V2c0-1.1-0.9-2-2-2H16c-1.1,0-2,0.9-2,2v4
		c0,1.1,0.9,2,2,2h0v16c-0.8,1.1-1.4,1.8-2,3L1,52c-0.5,1.8,0.3,3,2,3h42C46.7,55,47.5,53.8,47,52z M17,3h14v2H17V3z M6,51l11-23
		c0.5-0.3,2-2,2-2V8h10v18c0,0,1.5,1.7,2,2l11,23H6z"/>
	<polygon class="st0" points="20,30 11,48 37,48 28,30 	"/>
</g>
</svg>
